svgs/sharp-duotone-light/square-chevron-down.svg

<svg xmlns="http://www.w3.org/2000/svg" viewBox="0 0 448 512"><!--! Font Awesome Pro 7.1.0 by @fontawesome - https://fontawesome.com License - https://fontawesome.com/license (Commercial License) Copyright 2025 Fonticons, Inc. --><path opacity=".4" fill="currentColor" d="M32 64l0 384 384 0 0-384-384 0zM89.4 224l22.6-22.6 11.3 11.3 100.7 100.7 100.7-100.7 11.3-11.3 22.6 22.6-11.3 11.3-112 112-11.3 11.3-11.3-11.3-112-112-11.3-11.3z"/><path fill="currentColor" d="M32 448l0-384 384 0 0 384-384 0zM0 480l448 0 0-448-448 0 0 448zM235.3 347.3l112-112 11.3-11.3-22.6-22.6-11.3 11.3-100.7 100.7-100.7-100.7-11.3-11.3-22.6 22.6 11.3 11.3 112 112 11.3 11.3 11.3-11.3z"/></svg>

<svg xmlns="http://www.w3.org/2000/svg" viewBox="0 0 448 512"><!--! Font Awesome Pro 6.7.2 by @fontawesome - https://fontawesome.com License - https://fontawesome.com/license (Commercial License) Copyright 2024 Fonticons, Inc. --><defs><style>.fa-secondary{opacity:.4}</style></defs><path class="fa-secondary" d="M32 64l0 384 384 0 0-384L32 64zM89.4 224L112 201.4l11.3 11.3L224 313.4 324.7 212.7 336 201.4 358.6 224l-11.3 11.3-112 112L224 358.6l-11.3-11.3-112-112L89.4 224z"/><path class="fa-primary" d="M32 448L32 64l384 0 0 384L32 448zM0 480l32 0 384 0 32 0 0-32 0-384 0-32-32 0L32 32 0 32 0 64 0 448l0 32zM235.3 347.3l112-112L358.6 224 336 201.4l-11.3 11.3L224 313.4 123.3 212.7 112 201.4 89.4 224l11.3 11.3 112 112L224 358.6l11.3-11.3z"/></svg>
